X: 1
T: Because He Was A Bonny Lad
M: 2/4
L: 1/8
R: polka
K: Gmaj
|:d|BA Gg|e/f/g dB|ce dB|cA Ac|
BA Gg| e/f/g dB|ce dc |BG G:|
|:d/c/|BG dG|eG dG|ce dB|cA Ac|
BG DG|eG dG|ce dc|BG G:|
